**harm	**harte	**timestamp	**phrase	**leadinstrument	**kern
*M4/4	*M4/4	*	*	*	*
*E:	*E:	*	*	*	*E:
1r;	N	0	.	r	1r;
=1	=1	=1	=1	=1	=1
*>A_intro	*>A_intro	*>A_intro	*>A_intro	*>A_intro	*>A_intro
1r	N	0.232	newline	drums	1r
=2	=2	=2	=2	=2	=2
1r	N	2.538	.	drums	1r
=3	=3	=3	=3	=3	=3
1r	N	4.843	.	drums	1r
=4	=4	=4	=4	=4	=4
1r	N	7.149	.	drums	1r
=5	=5	=5	=5	=5	=5
1r	N	9.454	newline	drums	1r
=6	=6	=6	=6	=6	=6
1r	N	11.711	.	drums	1r
=7	=7	=7	=7	=7	=7
1r	N	13.969	.	drums	1r
=8	=8	=8	=8	=8	=8
1r	N	16.226	.	drums	1r
=9	=9	=9	=9	=9	=9
*>B_interlude	*>B_interlude	*>B_interlude	*>B_interlude	*>B_interlude	*>B_interlude
1I	E:1	18.483	newline	guitar	1E 1g# 1b
=10	=10	=10	=10	=10	=10
1I	E:1	20.765	.	guitar	1E 1g# 1b
=11	=11	=11	=11	=11	=11
1I	E:1	23.047	.	guitar	1E 1g# 1b
=12	=12	=12	=12	=12	=12
2.I	E:1	25.329	.	guitar	2E 2g# 2b
4IV	A:maj	27.041	.	guitar	4A 4cc# 4ee
=13	=13	=13	=13	=13	=13
*>C_verse	*>C_verse	*>C_verse	*>C_verse	*>C_verse	*>C_verse
*C:	*C:	*	*	*	*C:
1Im7	C:7	27.612	newline	voice	1C 1e 1g 1b
=14	=14	=14	=14	=14	=14
1Im7	C:7	29.893	.	voice	1C 1e 1g 1b
=15	=15	=15	=15	=15	=15
1Im7	C:7	32.174	.	voice	1C 1e 1g 1b
=16	=16	=16	=16	=16	=16
1Im7	C:7	34.456	.	voice	1C 1e 1g 1b
=17	=17	=17	=17	=17	=17
1Im7	C:7	36.737	newline	voice	1C 1e 1g 1b
=18	=18	=18	=18	=18	=18
1Im7	C:7	39.011	.	voice	1C 1e 1g 1b
=19	=19	=19	=19	=19	=19
1Im7	C:7	41.285	.	voice	1C 1e 1g 1b
=20	=20	=20	=20	=20	=20
2.Im7	C:7	43.559	.	voice	2C 2e 2g 2b
4VI	A:maj	45.265	.	voice	4A 4cc# 4ee
=21	=21	=21	=21	=21	=21
*>B_interlude	*>B_interlude	*>B_interlude	*>B_interlude	*>B_interlude	*>B_interlude
*E:	*E:	*	*	*	*E:
1I	E:1	45.834	newline	guitar	1E 1g# 1b
=22	=22	=22	=22	=22	=22
1I	E:1	48.098	.	guitar	1E 1g# 1b
=23	=23	=23	=23	=23	=23
1I	E:1	50.363	.	guitar	1E 1g# 1b
=24	=24	=24	=24	=24	=24
2.I	E:1	52.627	.	guitar	2E 2g# 2b
4IV	A:maj	54.326	.	guitar	4A 4cc# 4ee
=25	=25	=25	=25	=25	=25
*>C_verse	*>C_verse	*>C_verse	*>C_verse	*>C_verse	*>C_verse
*C:	*C:	*	*	*	*C:
1Im7	C:7	54.892	newline	voice	1C 1e 1g 1b
=26	=26	=26	=26	=26	=26
1Im7	C:7	57.173	.	voice	1C 1e 1g 1b
=27	=27	=27	=27	=27	=27
1Im7	C:7	59.455	.	voice	1C 1e 1g 1b
=28	=28	=28	=28	=28	=28
1Im7	C:7	61.736	.	voice	1C 1e 1g 1b
=29	=29	=29	=29	=29	=29
1Im7	C:7	64.017	newline	voice	1C 1e 1g 1b
=30	=30	=30	=30	=30	=30
1Im7	C:7	66.288	.	voice	1C 1e 1g 1b
=31	=31	=31	=31	=31	=31
1Im7	C:7	68.558	.	voice	1C 1e 1g 1b
=32	=32	=32	=32	=32	=32
1Im7	C:7	70.829	.	voice	1C 1e 1g 1b
=33	=33	=33	=33	=33	=33
*>D_chorus	*>D_chorus	*>D_chorus	*>D_chorus	*>D_chorus	*>D_chorus
1Im7	C:7	73.099	newline	voice	1C 1e 1g 1b
=34	=34	=34	=34	=34	=34
1IVm7	F:7	75.376	.	voice	1F 1a 1cc 1ee
=35	=35	=35	=35	=35	=35
1Im7	C:7	77.653	.	voice	1C 1e 1g 1b
=36	=36	=36	=36	=36	=36
1IVm7	F:7	79.93	.	voice	1F 1a 1cc 1ee
=37	=37	=37	=37	=37	=37
1Im7	C:7	82.207	newline	voice	1C 1e 1g 1b
=38	=38	=38	=38	=38	=38
1IVm7	F:7	84.473	.	voice	1F 1a 1cc 1ee
=39	=39	=39	=39	=39	=39
1Im7	C:7	86.739	.	voice	1C 1e 1g 1b
=40	=40	=40	=40	=40	=40
1IVm7	F:7	89.004	.	voice	1F 1a 1cc 1ee
=41	=41	=41	=41	=41	=41
*>C2_solo	*>C2_solo	*>C2_solo	*>C2_solo	*>C2_solo	*>C2_solo
1Im7	C:7	91.27	newline	guitar	1C 1e 1g 1b
=42	=42	=42	=42	=42	=42
1Im7	C:7	93.552	.	guitar	1C 1e 1g 1b
=43	=43	=43	=43	=43	=43
1Im7	C:7	95.834	.	guitar	1C 1e 1g 1b
=44	=44	=44	=44	=44	=44
2.Im7	C:7	98.116	.	guitar	2C 2e 2g 2b
4VI	A:maj	99.827	.	guitar	4A 4cc# 4ee
=45	=45	=45	=45	=45	=45
*>B_interlude	*>B_interlude	*>B_interlude	*>B_interlude	*>B_interlude	*>B_interlude
*E:	*E:	*	*	*	*E:
1I	E:1	100.397	newline	guitar	1E 1g# 1b
=46	=46	=46	=46	=46	=46
1I	E:1	102.671	.	guitar	1E 1g# 1b
=47	=47	=47	=47	=47	=47
1I	E:1	104.944	.	guitar	1E 1g# 1b
=48	=48	=48	=48	=48	=48
2.I	E:1	107.217	.	guitar	2E 2g# 2b
4IV	A:maj	108.922	.	guitar	4A 4cc# 4ee
=49	=49	=49	=49	=49	=49
*>C_verse	*>C_verse	*>C_verse	*>C_verse	*>C_verse	*>C_verse
1r	N	109.49	newline	voice	1r
=50	=50	=50	=50	=50	=50
1r	N	111.754	.	voice	1r
=51	=51	=51	=51	=51	=51
1r	N	114.017	.	voice	1r
=52	=52	=52	=52	=52	=52
1r	N	116.281	.	voice	1r
=53	=53	=53	=53	=53	=53
1r	N	118.545	newline	voice	1r
=54	=54	=54	=54	=54	=54
1r	N	120.813	.	voice	1r
=55	=55	=55	=55	=55	=55
1r	N	123.081	.	voice	1r
=56	=56	=56	=56	=56	=56
1r	N	125.349	.	voice	1r
=57	=57	=57	=57	=57	=57
*>B_interlude	*>B_interlude	*>B_interlude	*>B_interlude	*>B_interlude	*>B_interlude
1I	E:1	127.617	newline	guitar	1E 1g# 1b
=58	=58	=58	=58	=58	=58
1I	E:1	129.904	.	guitar	1E 1g# 1b
=59	=59	=59	=59	=59	=59
1I	E:1	132.191	.	guitar	1E 1g# 1b
=60	=60	=60	=60	=60	=60
2.I	E:1	134.478	.	guitar	2E 2g# 2b
4IV	A:maj	136.193	.	guitar	4A 4cc# 4ee
=61	=61	=61	=61	=61	=61
*>C_verse	*>C_verse	*>C_verse	*>C_verse	*>C_verse	*>C_verse
*C:	*C:	*	*	*	*C:
1Im7	C:7	136.765	newline	voice	1C 1e 1g 1b
=62	=62	=62	=62	=62	=62
1Im7	C:7	139.035	.	voice	1C 1e 1g 1b
=63	=63	=63	=63	=63	=63
1Im7	C:7	141.305	.	voice	1C 1e 1g 1b
=64	=64	=64	=64	=64	=64
1Im7	C:7	143.575	.	voice	1C 1e 1g 1b
=65	=65	=65	=65	=65	=65
1Im7	C:7	145.845	newline	voice	1C 1e 1g 1b
=66	=66	=66	=66	=66	=66
1Im7	C:7	148.11	.	voice	1C 1e 1g 1b
=67	=67	=67	=67	=67	=67
1Im7	C:7	150.376	.	voice	1C 1e 1g 1b
=68	=68	=68	=68	=68	=68
1Im7	C:7	152.642	.	voice	1C 1e 1g 1b
=69	=69	=69	=69	=69	=69
*>D_chorus	*>D_chorus	*>D_chorus	*>D_chorus	*>D_chorus	*>D_chorus
1Im7	C:7	154.907	newline	voice	1C 1e 1g 1b
=70	=70	=70	=70	=70	=70
1IVm7	F:7	157.18	.	voice	1F 1a 1cc 1ee
=71	=71	=71	=71	=71	=71
1Im7	C:7	159.453	.	voice	1C 1e 1g 1b
=72	=72	=72	=72	=72	=72
1IVm7	F:7	161.726	.	voice	1F 1a 1cc 1ee
=73	=73	=73	=73	=73	=73
1Im7	C:7	163.999	newline	voice	1C 1e 1g 1b
=74	=74	=74	=74	=74	=74
1IVm7	F:7	166.275	.	voice	1F 1a 1cc 1ee
=75	=75	=75	=75	=75	=75
1Im7	C:7	168.552	.	voice	1C 1e 1g 1b
=76	=76	=76	=76	=76	=76
1IVm7	F:7	170.828	.	voice	1F 1a 1cc 1ee
=77	=77	=77	=77	=77	=77
*>C2_solo	*>C2_solo	*>C2_solo	*>C2_solo	*>C2_solo	*>C2_solo
1I	C:1	173.105	newline	guitar	1C 1e 1g
=78	=78	=78	=78	=78	=78
1I	C:1	175.38	.	guitar	1C 1e 1g
=79	=79	=79	=79	=79	=79
1I	C:1	177.656	.	guitar	1C 1e 1g
=80	=80	=80	=80	=80	=80
2.I	C:1	179.931	.	guitar	2C 2e 2g
4VI	A:maj	181.638	.	guitar	4A 4cc# 4ee
=81	=81	=81	=81	=81	=81
*>B_interlude	*>B_interlude	*>B_interlude	*>B_interlude	*>B_interlude	*>B_interlude
*E:	*E:	*	*	*	*E:
2.I	E:1	182.207	newline	guitar	2E 2g# 2b
4I	E:maj	183.914	.	guitar	4E 4g# 4b
=82	=82	=82	=82	=82	=82
2I	E:1	184.483	.	guitar	2E 2g# 2b
2IV	A:maj	185.62	.	guitar	2A 2cc# 2ee
=83	=83	=83	=83	=83	=83
2.I	E:1	186.758	.	guitar	2E 2g# 2b
4I	E:maj	188.465	.	guitar	4E 4g# 4b
=84	=84	=84	=84	=84	=84
2I	E:1	189.034	.	guitar	2E 2g# 2b
2IV	A:maj	190.171	.	guitar	2A 2cc# 2ee
=85	=85	=85	=85	=85	=85
*>B_solo	*>B_solo	*>B_solo	*>B_solo	*>B_solo	*>B_solo
2.I	E:1	191.309	newline	guitar	2E 2g# 2b
4I	E:maj	193.011	.	guitar	4E 4g# 4b
=86	=86	=86	=86	=86	=86
2I	E:1	193.578	.	guitar	2E 2g# 2b
2IV	A:maj	194.712	.	guitar	2A 2cc# 2ee
=87	=87	=87	=87	=87	=87
2.I	E:1	195.847	.	guitar	2E 2g# 2b
4I	E:maj	197.549	.	guitar	4E 4g# 4b
=88	=88	=88	=88	=88	=88
2I	E:1	198.116	.	guitar	2E 2g# 2b
2IV	A:maj	199.25	.	guitar	2A 2cc# 2ee
=89	=89	=89	=89	=89	=89
2.I	E:1	200.385	newline	guitar	2E 2g# 2b
4I	E:maj	202.086	.	guitar	4E 4g# 4b
=90	=90	=90	=90	=90	=90
2I	E:1	202.652	.	guitar	2E 2g# 2b
2IV	A:maj	203.786	.	guitar	2A 2cc# 2ee
=91	=91	=91	=91	=91	=91
2.I	E:1	204.92	.	guitar	2E 2g# 2b
4I	E:maj	206.621	.	guitar	4E 4g# 4b
=92	=92	=92	=92	=92	=92
2I	E:1	207.188	.	guitar	2E 2g# 2b
2IV	A:maj	208.322	.	guitar	2A 2cc# 2ee
=93	=93	=93	=93	=93	=93
2.I	E:1	209.456	newline	guitar	2E 2g# 2b
4I	E:maj	211.165	.	guitar	4E 4g# 4b
=94	=94	=94	=94	=94	=94
2I	E:1	211.734	.	guitar	2E 2g# 2b
2IV	A:maj	212.874	.	guitar	2A 2cc# 2ee
=95	=95	=95	=95	=95	=95
2.I	E:1	214.013	.	guitar	2E 2g# 2b
4I	E:maj	215.722	.	guitar	4E 4g# 4b
=96	=96	=96	=96	=96	=96
2I	E:1	216.291	.	guitar	2E 2g# 2b
2IV	A:maj	217.43	.	guitar	2A 2cc# 2ee
=97	=97	=97	=97	=97	=97
2.I	E:1	218.569	newline	guitar	2E 2g# 2b
4I	E:maj	220.278	.	guitar	4E 4g# 4b
=98	=98	=98	=98	=98	=98
2I	E:1	220.848	.	guitar	2E 2g# 2b
2IV	A:maj	221.987	.	guitar	2A 2cc# 2ee
=99	=99	=99	=99	=99	=99
2.I	E:1	223.127	.	guitar	2E 2g# 2b
4I	E:maj	224.835	.	guitar	4E 4g# 4b
=100	=100	=100	=100	=100	=100
2I	E:1	225.405	.	guitar	2E 2g# 2b
2IV	A:maj	226.544	.	guitar	2A 2cc# 2ee
=101	=101	=101	=101	=101	=101
2.I	E:1	227.684	newline	guitar	2E 2g# 2b
4I	E:maj	229.387	.	guitar	4E 4g# 4b
=102	=102	=102	=102	=102	=102
2I	E:1	229.954	.	guitar	2E 2g# 2b
2IV	A:maj	231.09	.	guitar	2A 2cc# 2ee
=103	=103	=103	=103	=103	=103
2.I	E:1	232.225	.	guitar	2E 2g# 2b
4I	E:maj	233.928	.	guitar	4E 4g# 4b
=104	=104	=104	=104	=104	=104
2I	E:1	234.495	.	guitar	2E 2g# 2b
2IV	A:maj	235.631	.	guitar	2A 2cc# 2ee
=105	=105	=105	=105	=105	=105
1I	E:maj	236.766	newline	guitar	1E 1g# 1b
=106	=106	=106	=106	=106	=106
2.I	E:maj	239.032	.	guitar	2E 2g# 2b
4IV	A:maj	240.731	.	guitar	4A 4cc# 4ee
=107	=107	=107	=107	=107	=107
1I	E:maj	241.298	.	guitar	1E 1g# 1b
=108	=108	=108	=108	=108	=108
2.I	E:maj	243.564	.	guitar	2E 2g# 2b
4IV	A:maj	245.263	.	guitar	4A 4cc# 4ee
=109	=109	=109	=109	=109	=109
1I	E:maj	245.83	newline	guitar	1E 1g# 1b
=110	=110	=110	=110	=110	=110
2.I	E:maj	248.104	.	guitar	2E 2g# 2b
4IV	A:maj	249.809	.	guitar	4A 4cc# 4ee
=111	=111	=111	=111	=111	=111
1I	E:maj	250.378	.	guitar	1E 1g# 1b
=112	=112	=112	=112	=112	=112
2.I	E:maj	252.652	.	guitar	2E 2g# 2b
4IV	A:maj	254.358	.	guitar	4A 4cc# 4ee
=113	=113	=113	=113	=113	=113
2.I	E:1	254.926	newline	guitar	2E 2g# 2b
4I	E:maj	256.63	.	guitar	4E 4g# 4b
=114	=114	=114	=114	=114	=114
2I	E:1	257.198	.	guitar	2E 2g# 2b
2IV	A:maj	258.334	.	guitar	2A 2cc# 2ee
=115	=115	=115	=115	=115	=115
2.I	E:1	259.47	.	guitar	2E 2g# 2b
4I	E:maj	261.174	.	guitar	4E 4g# 4b
=116	=116	=116	=116	=116	=116
2I	E:1	261.742	.	guitar	2E 2g# 2b
2IV	A:maj	262.879	.	guitar	2A 2cc# 2ee
=117	=117	=117	=117	=117	=117
2.I	E:1	264.015	newline	guitar	2E 2g# 2b
4I	E:maj	265.721	.	guitar	4E 4g# 4b
=118	=118	=118	=118	=118	=118
2I	E:1	266.289	.	guitar	2E 2g# 2b
2IV	A:maj	267.427	.	guitar	2A 2cc# 2ee
=119	=119	=119	=119	=119	=119
2.I	E:1	268.564	.	guitar	2E 2g# 2b
4I	E:maj	270.27	.	guitar	4E 4g# 4b
=120	=120	=120	=120	=120	=120
2I	E:1	270.838	.	guitar	2E 2g# 2b
2IV	A:maj	271.976	.	guitar	2A 2cc# 2ee
=121	=121	=121	=121	=121	=121
2.I	E:1	273.113	newline	guitar	2E 2g# 2b
4I	E:maj	274.811	.	guitar	4E 4g# 4b
=122	=122	=122	=122	=122	=122
2I	E:1	275.377	.	guitar	2E 2g# 2b
2IV	A:maj	276.509	.	guitar	2A 2cc# 2ee
=123	=123	=123	=123	=123	=123
2.I	E:1	277.641	.	guitar	2E 2g# 2b
4I	E:maj	279.339	.	guitar	4E 4g# 4b
=124	=124	=124	=124	=124	=124
2I	E:1	279.905	.	guitar	2E 2g# 2b
2IV	A:maj	281.037	.	guitar	2A 2cc# 2ee
=125	=125	=125	=125	=125	=125
2.r	N	282.169	newline	guitar	2r
4I	E:maj	283.876	.	guitar	4E 4g# 4b
=126	=126	=126	=126	=126	=126
2.r	N	284.444	.	guitar	2r
4IV	A:maj	286.151	.	guitar	4A 4cc# 4ee
=127	=127	=127	=127	=127	=127
2.r	N	286.72	.	guitar	2r
4I	E:maj	288.427	.	guitar	4E 4g# 4b
=128	=128	=128	=128	=128	=128
2.r	N	288.996	.	guitar	2r
4IV	A:maj	290.702	.	guitar	4A 4cc# 4ee
=129	=129	=129	=129	=129	=129
1r	N	291.271	newline	guitar	1r
=130	=130	=130	=130	=130	=130
1r	N	293.087	.	guitar	1r
=131	=131	=131	=131	=131	=131
1r	N	294.903	.	guitar	1r
=132	=132	=132	=132	=132	=132
1r	N	296.719	.	guitar	1r
=133	=133	=133	=133	=133	=133
1r	N	298.534	.	guitar	1r
=134	=134	=134	=134	=134	=134
1r	N	300.35	newline	guitar	1r
=135	=135	=135	=135	=135	=135
1r	N	302.695	.	guitar	1r
=136	=136	=136	=136	=136	=136
1r	N	305.041	.	guitar	1r
=137	=137	=137	=137	=137	=137
1r	N	307.386	.	guitar	1r
1r;	N	309.731	.	r	1r;
1r;	N	312.033	.	r	1r;
*-	*-	*-	*-	*-	*-
!!!OTL: Walk This Way
!!!COC: Run-D.M.C.
!!!BillboardChartDate: 1986/08/02
!!!BillboardPeak: 4
!!!BillboardWeeksOnChart: 16
!!!SampleTargetRank: 56
!!!SampleActualRank: 55
!!!SampleID#: 0879
!!!RDF**harmony: **recip + pitch class of root + harmonic quality
!!!RDF**harte: Chris Harte's syntax, used by MIREX
!!!RDF**phrase: newline = linebreak in original McGill transcription
!!!RDF**timestamp: McGill audio timestamp in seconds
!!!RDF**leadinstrument: original McGill primary instrumentation annotation
!!!RDT: 2017/01/12/
!!!ENC: Nathaniel Condit-Schultz
!!!EST: Awating manual error checking and editing.
